/* XPM */
static char *result[] = {
/* columns rows colors chars-per-pixel */
"32 32 120 2 ",
"   c #526B1C",
".  c #5B741F",
"X  c #506226",
"o  c #5B6E24",
"O  c #586E27",
"+  c #55612E",
"@  c #566B28",
"#  c #5A6C2B",
"$  c #5C692C",
"%  c #5A6C2F",
"&  c #5C7121",
"*  c #5C7524",
"=  c #5D7A25",
"-  c #5E7A25",
";  c #5D712C",
":  c #5F7431",
">  c #60682F",
",  c #63712B",
"<  c #646F34",
"1  c #657E36",
"2  c #687B34",
"3  c #63753E",
"4  c #697739",
"5  c #6F7938",
"6  c #6D7A3B",
"7  c #707B34",
"8  c #707F39",
"9  c #68961B",
"0  c #6A901E",
"q  c #71A71A",
"w  c #6A8824",
"e  c #6B8926",
"r  c #60862A",
"t  c #648629",
"y  c #6B8428",
"u  c #63882D",
"i  c #748C2E",
"p  c #699825",
"a  c #799724",
"s  c #7E9B23",
"d  c #7F962D",
"f  c #75982A",
"g  c #608332",
"h  c #668437",
"j  c #6D8632",
"k  c #6C8733",
"l  c #6F843A",
"z  c #6C893C",
"x  c #768932",
"c  c #718A37",
"v  c #7A8F33",
"b  c #70873E",
"n  c #71883B",
"m  c #7B8E38",
"M  c #78883E",
"N  c #6C9034",
"B  c #6E9038",
"V  c #719233",
"C  c #769230",
"Z  c #719430",
"A  c #759731",
"S  c #719635",
"D  c #719437",
"F  c #7D9032",
"G  c #7B9235",
"H  c #7A9A35",
"J  c #779B3E",
"K  c #6DA12C",
"L  c #72A921",
"P  c #71AB25",
"I  c #71A72E",
"U  c #72A82D",
"Y  c #70A731",
"T  c #6D8640",
"R  c #778540",
"E  c #748641",
"W  c #758746",
"Q  c #798444",
"!  c #738C42",
"~  c #7B8B41",
"^  c #75874A",
"/  c #7A824F",
"(  c #7E9C47",
")  c #80AA15",
"_  c #8EBE12",
"`  c #8FB914",
"'  c #82B91F",
"]  c #8CBD18",
"[  c #82972E",
"{  c #89982D",
"}  c #819A30",
"|  c #809C31",
" . c #829139",
".. c #829A3B",
"X. c #879E3E",
"o. c #89993A",
"O. c #87A335",
"+. c #85A932",
"@. c #88A03C",
"#. c #93AE36",
"$. c #96C615",
"%. c #808146",
"&. c #868A41",
"*. c #858E40",
"=. c #848C42",
"-. c #8C8C4E",
";. c #889142",
":. c #8A934E",
">. c #839B48",
",. c #81994C",
"<. c #829950",
"1. c #89A040",
"2. c #92A746",
"3. c #96A445",
"4. c #9CA748",
"5. c #81B345",
"6. c #8AA258",
"7. c #9BA552",
"8. c #8EBE61",
"9. c None",
/* pixels */
"9.9.9.9.9.9.9.9.9.9.9.9.9.9.9.9.9.9.9.9.9.9.9.9.9.9.9.9.9.9.9.9.",
"9.9.9.9.9.9.9.9.9.9.9.9.9.9.9.9.9.9.9.9.9.9.9.9.9.9.9.9.9.9.9.9.",
"9.9.9.9.9.9.9.9.9.9.9.9.9.9.9.9.9.9.9.9.9.9.9.9.9.9.9.9.9.9.9.9.",
"9.9.9.9.9.9.9.9.9.9.9.9.9.9.9.9.9.9.9.! 9.9.9.9.9.9.9.9.9.9.9.9.",
"9.9.9.9.9.9.9.q 9.9.9._ 9.9.d 9.z 9.9.<.9.` 9.9.9.9.9.9.9.9.9.9.",
"9.9.9.9.9.9.9.9.U P ' $.9.9.s 9.D 9.9./ 9.) 9.9.9.9.9.9.9.9.9.9.",
"9.9.9.9.9.9.9.9.9.Y L ] 9.9.a 9.( 9.9.b 0 p K I 5.8.9.9.9.9.9.9.",
"9.9.9.9.9.9.9.9.9.9.9.9 9.9.X.9.^ 9.9.c 9.9.9.9.9.9.9.9.9.9.9.9.",
"9.9.9.9.9.9.9.9.9.9.9.9.* 9.8 9.g 9.9.Q 9.9.9.9.9.9.9.9.9.9.9.9.",
"9.9.9.9.9.9.9.9.9.9.9.9.. 9.w 9.Z 9.9.2 9.9.9.9.9.9.9.9.9.9.9.9.",
"9.9.9.9.9.9.9.9.9.9.9.9.y 9.M 9.A 9.9.k 9.9.9.9.9.9.9.9.9.9.9.9.",
"9.9.9.9.9.9.9.9.9.9.9.9.:.6 % 9.H 9.6.W 9.9.9.9.9.9.9.9.9.9.9.9.",
"9.9.9.9.9.9.9.9.9.9.9.9.9.=   9.>.9.T 3 9.9.9.9.9.9.9.9.9.9.9.9.",
"9.9.9.9.9.9.9.9.9.9.9.9.9.n X 9.1 9.N 9.9.9.9.9.9.9.9.9.9.9.9.9.",
"9.9.9.9.9.9.9.9.9.9.9.9.9.j + J t 9.S 9.9.9.9.9.9.9.9.9.9.9.9.9.",
"9.9.9.9.9.9.9.9.9.9.9.9.9.+.O ; - 9.,.9.9.9.9.9.9.9.9.9.9.9.9.9.",
"9.9.9.9.9.9.9.9.9.9.9.9.9.9.C # @ 9.h 9.9.9.9.9.9.9.9.9.9.9.9.9.",
"9.9.9.9.9.9.9.9.9.9.9.9.9.9.~ $ < 9.r 9.9.9.9.9.9.9.9.9.9.9.9.9.",
"9.9.9.9.9.9.9.9.9.9.9.9.9.9.V o > 9.u 9.9.9.9.9.9.9.9.9.9.9.9.9.",
"9.9.9.9.9.9.9.9.9.9.9.9.9.9.f e , 9.B 9.9.9.9.9.9.9.9.9.9.9.9.9.",
"9.9.9.9.9.9.9.9.9.9.9.9.9.9.G 1.7 9.E 9.9.9.9.9.9.9.9.9.9.9.9.9.",
"9.9.9.9.9.9.9.9.9.9.9.9.9.9.m ..& l : 9.9.9.9.9.9.9.9.9.9.9.9.9.",
"9.9.9.9.9.9.9.9.9.9.9.9.9.9.=.2. .-.%.9.9.9.9.9.9.9.9.9.9.9.9.9.",
"9.9.9.9.9.9.9.9.9.9.9.9.9.7.&.3.4.;.5 9.9.9.9.9.9.9.9.9.9.9.9.9.",
"9.9.9.9.9.9.9.9.9.9.9.9.9.9.x } O.i 4 9.9.9.9.9.9.9.9.9.9.9.9.9.",
"9.9.9.9.9.9.9.9.9.9.9.9.9.9.v [ @.| R 9.9.9.9.9.9.9.9.9.9.9.9.9.",
"9.9.9.9.9.9.9.9.9.9.9.9.9.9.F { o.#.*.9.9.9.9.9.9.9.9.9.9.9.9.9.",
"9.9.9.9.9.9.9.9.9.9.9.9.9.9.9.9.9.9.9.9.9.9.9.9.9.9.9.9.9.9.9.9.",
"9.9.9.9.9.9.9.9.9.9.9.9.9.9.9.9.9.9.9.9.9.9.9.9.9.9.9.9.9.9.9.9.",
"9.9.9.9.9.9.9.9.9.9.9.9.9.9.9.9.9.9.9.9.9.9.9.9.9.9.9.9.9.9.9.9.",
"9.9.9.9.9.9.9.9.9.9.9.9.9.9.9.9.9.9.9.9.9.9.9.9.9.9.9.9.9.9.9.9.",
"9.9.9.9.9.9.9.9.9.9.9.9.9.9.9.9.9.9.9.9.9.9.9.9.9.9.9.9.9.9.9.9."
};
