/* XPM */
static char *result[] = {
/* columns rows colors chars-per-pixel */
"25 29 145 2 ",
"   c #020202",
".  c #030A03",
"X  c #0C0B0B",
"o  c #071600",
"O  c #0C1E00",
"+  c #0E150B",
"@  c #081303",
"#  c #0F0F10",
"$  c #121212",
"%  c #191817",
"&  c #1B1B1B",
"*  c #241D1D",
"=  c #0E2501",
"-  c #0D2C00",
";  c #113201",
":  c #1A3304",
">  c #1F2A19",
",  c #0B232E",
"<  c #1E2021",
"1  c #152E39",
"2  c #232323",
"3  c #282728",
"4  c #272828",
"5  c #2A2A2A",
"6  c #392828",
"7  c #28373F",
"8  c #333434",
"9  c #3C3C3C",
"0  c #583D3D",
"q  c #154300",
"w  c #1B5700",
"e  c #21440D",
"r  c #2B5D03",
"t  c #234213",
"y  c #3C5519",
"u  c #276703",
"i  c #2E6104",
"p  c #2E7B02",
"a  c #2E7102",
"s  c #347501",
"d  c #327900",
"f  c #395021",
"g  c #3E5C31",
"h  c #183847",
"j  c #183442",
"k  c #4E3F41",
"l  c #24414E",
"z  c #3B464C",
"x  c #30505F",
"c  c #3A5D6F",
"v  c #434342",
"b  c #4C4C4C",
"n  c #5C4343",
"m  c #51504F",
"M  c #455056",
"N  c #575755",
"B  c #5E5E5D",
"V  c #565A5B",
"C  c #6D4A4A",
"Z  c #614646",
"A  c #724C4C",
"S  c #655F43",
"D  c #60605F",
"F  c #636E58",
"G  c #657C5C",
"H  c #435560",
"J  c #646564",
"K  c #686767",
"L  c #686867",
"P  c #6C6C6C",
"I  c #6C6E71",
"U  c #7D7D7D",
"Y  c #737270",
"T  c #895E5E",
"R  c #976969",
"E  c #9E7170",
"W  c #AD7474",
"Q  c #B17979",
"!  c #318C05",
"~  c #309001",
"^  c #4A9608",
"/  c #58AB18",
"(  c #56902F",
")  c #518233",
"_  c #699F2A",
"`  c #6FA127",
"'  c #75A925",
"]  c #62AD35",
"[  c #809B69",
"{  c #B79377",
"}  c #A6A364",
"|  c #8CC26C",
" . c #5F7F8F",
".. c #868584",
"X. c #888785",
"o. c #8C8B8B",
"O. c #908F8F",
"+. c #92918F",
"@. c #899499",
"#. c #969695",
"$. c #9B9B9B",
"%. c #BE8282",
"&. c #96A9B5",
"*. c #A4A3A3",
"=. c #A8A7A4",
"-. c #B6B5B4",
";. c #BBBAB9",
":. c #CD8D8D",
">. c #DF9999",
",. c #E19B9B",
"<. c #EB9F9F",
"1. c #E4A69D",
"2. c #EDA3A4",
"3. c #F1A7A8",
"4. c #F2A9A9",
"5. c #9BCB8B",
"6. c #AFD59A",
"7. c #B3D69D",
"8. c #B6CCA9",
"9. c #C4C3BF",
"0. c #9FB7C5",
"q. c #B2C7D2",
"w. c #C5C4C2",
"e. c #C8C7C8",
"r. c #CDCDCC",
"t. c #CBCAC6",
"y. c #D0CFCB",
"u. c #D4D3CF",
"i. c #D5D5D3",
"p. c #DEDEDB",
"a. c #D7DAD4",
"s. c #E1DFDD",
"d. c #D7E4CE",
"f. c #E4E3DF",
"g. c #DADEE0",
"h. c #E5E4E2",
"j. c #E8E7E3",
"k. c #EAE9E5",
"l. c #EBEBE9",
"z. c #F1EFEF",
"x. c #EBF3E6",
"c. c #F5F5F4",
"v. c #F8F7F7",
"b. c #FDFDFD",
"n. c None",
/* pixels */
"n.n.n.n.n.n.n.n.5 n.n.n.n.n.n.n.n.n.n.n.n.n.n.n.n.",
"n.n.n.n.n.n.$ & 5 5 n.n.n.n.n.n.n.n.n.n.n.n.n.n.n.",
"n.n.n.n.n.n.X 2 5 5 n.n.n.n.n.n.n.n.n.n.n.n.n.n.n.",
"n.n.n.n.n.n.. & 5 D t.j.j.v.b.v.n.n.n.n.n.n.n.n.n.",
"n.n.n.n.n.n.$ 5 X.i.k.j.k.b.b.b.b.n.5 5 5 n.n.n.n.",
"n.n.n.n.n.n.n.9.f.f.-.-.j.b.b.b.b.e.8 5 5 & n.n.n.",
"n.n.n.n.n.n.h.l.u.D $ 5 i.b.l.r.b.c.L 2 & # n.n.n.",
"n.n.n.n.n.f.k.u.V h j 8 i.v.B & -.b.-.&   X n.n.n.",
"n.n.n.n.n.j.l.Y z x l @.l.i.7 , b z.v.#.n.n.n.n.n.",
"n.n.n.n.s.j.f.v > &.q.g.v.g.c 1 H ;.b.b.n.n.n.n.n.",
"n.n.n.n.s.f.k.=...s.z.r.r.z.0. .M O.b.v.n.n.n.n.n.",
"n.n.n.n.n.j.h.j.c.v.#.D X.r.v.I . $.b.b.n.n.n.n.n.",
"n.n.n.n.n.a.8.| 7.z.i. .I -.b.=.L h.b.v.n.n.n.n.n.",
"n.n.n.n.n.n.( / ] 5.a.w.l.v.b.b.b.b.b.c.n.n.n.n.n.",
"n.n.n.n.n.u s p d G p.h.d.7.x.b.v.i.o.n.n.n.n.n.n.",
"n.n.n.n.n.r s r ;   9 K F g ) [ b < X & n.n.n.n.n.",
"n.n.n.n.n.: d ;       = s ; . ; + & % % n.n.n.n.n.",
"n.n.n.n.n.= ; .       O q -     X 2 5 2 n.n.n.n.n.",
"n.n.n.n.U .             > . # 5   & 5 2 2 n.n.n.n.",
"n.n.n.n.*.X       . $ b e.b X 2 X X 3 5 t ! n.n.n.",
"n.n.n.v 8 X       X J l.b.i.o.D m   # > s ~ n.n.n.",
"n.n.B 4 %         X $.b.v.b.f.w.N X     r ^ 8 n.n.",
"n.n E Z * X       X o.v.c.c.k.9.&     X + a y v n.",
"n.%.4.2.R *         D l.l.l.l...      @ ; y ` { n.",
"n.Q 4.4.3.T       # 8 +.u.k.;.2       o e { } ' n.",
"n.C >.3.3.,.6   $ 2 2 $ v r.b           S 1.1._ n.",
"n.n.T ,.3.3.C             n.n.n.n.    * :.3.2.n.n.",
"n.n.n.A E :.0 . 5 5 $ 2 0 n.n.n.n.n.  0 <.n.n.n.n.",
"n.n.n.n.n.n.n.n.n.n.n.n.n.n.n.n.n.n.n.n.n.n.n.n.n."
};
