/* XPM */
static char *result[] = {
/* columns rows colors chars-per-pixel */
"32 32 92 1 ",
"  c #45473F",
". c #454642",
"X c #494742",
"o c #464944",
"O c #4B4C46",
"+ c #4D4E4B",
"@ c #504F4E",
"# c #4B5343",
"$ c #4D5C44",
"% c #4E524C",
"& c #505747",
"* c #52544D",
"= c #535B4C",
"- c #4F5451",
"; c #545552",
": c #585754",
"> c #555A54",
", c #5A5A55",
"< c #57575A",
"1 c #565A59",
"2 c #5B5C5A",
"3 c #605F5D",
"4 c #55614E",
"5 c #59634D",
"6 c #5B694E",
"7 c #566253",
"8 c #5B6354",
"9 c #5B6B53",
"0 c #5D625C",
"q c #5F6A5B",
"w c #606C53",
"e c #62635D",
"r c #68665F",
"t c #636A5D",
"y c #696A5F",
"u c #67765E",
"i c #6A745E",
"p c #5D5E62",
"a c #5E6262",
"s c #636563",
"d c #646A64",
"f c #696B65",
"g c #64676A",
"h c #656C6B",
"j c #6A6D6B",
"k c #657663",
"l c #6B7365",
"z c #66716C",
"x c #6B726C",
"c c #6C7A6A",
"v c #717A62",
"b c #73756D",
"n c #666B71",
"m c #6A6E73",
"M c #6B6E78",
"N c #677072",
"B c #6B7373",
"V c #6E7A75",
"C c #6E7479",
"Z c #6F7879",
"A c #737672",
"S c #747B75",
"D c #787A75",
"F c #70747B",
"G c #747C7B",
"H c #797D7B",
"J c #6F8066",
"K c #72826E",
"L c #768374",
"P c #7D8576",
"I c #7C8876",
"U c #77827B",
"Y c #7C827C",
"T c #7E897A",
"R c #80857E",
"E c #848C7D",
"W c #737380",
"Q c #757C80",
"! c #787E82",
"~ c #768081",
"^ c #7C8381",
"/ c #7F8883",
"( c #828683",
") c #838984",
"_ c #898D86",
"` c #808689",
"' c #88878A",
"] c #858B8A",
"[ c #8B8E8A",
"{ c #8C9186",
"} c #8D918A",
"| c #92948B",
/* pixels */
"10ee:&===**:,r, fbbf$ryef,-addd;",
"[['EflLJJeD['(m2'(Hb7T)P/dcT)[)a",
"^WWB0qccx2j!FMp2CMmd1zBBh1aBCCz1",
"hhmj>8fff,,sps3+apa2%1aga%7appa-",
"Af*:ejbf2e3ff2dhdeO=qa0%120sp2Bb",
"`Y1b}}|YdY(}GjYGGG1z^//aL/(^zh]`",
"Bm:hSFA0>BFFseVCZB>aZQN,xZMMaaCC",
"a0*sjdq$=hjs2=asga%>9aq=7app;1aa",
".:eert6wtbbytcbz4>02>*&70,,;22:@",
"s`_[[S9EER_lS^UK5uI)Pj8E{_GdHR((",
"2BCSZd8Sczfezzhd$9V!Sg0Y^~B0S(^!",
"$asfs2;dtts,2se8$7hjg1:jmja:gjly",
"ed**frte,xDAf@fbbAf:,:31,ss,;#56",
"ERdtSSSLf)])De}})]jj_{{bb)[`A8IR",
"zz2>daNzjVGUx2HSFGsfG~GdxZFNd,ku",
"eq= 77ga2da0,,dsgg:sBNn0ahgs1%qq",
"X===##esfs@2fff>eSbDs2jxjf1hfjjr",
"3_RRD,R_[(e(HBB8fSxV0x]/^B2UG!US",
"eAdCh>HCCB2fdhg0dNhN2aCCNapBnMnh",
"101s0+gsgdO:1,:O%>;0*o*11;-1;111",
"Ab3@,3sj,:eerX*txl2Olblf>tttd23b",
"HGj:HYAA3DRYY,x)/(B:)DVUaLLU^hAD",
"mjs,jMgp2AAmk=qVGGh*zzBt5kzzB2gm",
"p3,@<ppp:2ssw5 8hh,o10dq#$41:@12",
"::rffy3:syr0=ivbs ,freO#$=,%o1a2",
"jA'YYDsf}_HxfR/`H,YYYS0d/T^za/)Y",
"3A!Fjd3ycczg2hB/H,dnCs;sUQNa0Nkd",
"23f3pe,,698,%22a1O*101.$ana1-898",
"bAx*,ffyw6ibj,OdfffO>>==o,es0$=l",
")^G2R[{EclT)Ha2SSYA;A/)Y1GHH/lc)",
"BBn2AcVBsdCmn2>hFSh*zZQB:hnMB0xS",
"ass:0dhf0ahsp;%sjdsOadxs*0ghu>2d"
};
